img/deco-arrow-right.svg

<svg fill="none" height="32" viewBox="0 0 136 32" width="136" xmlns="http://www.w3.org/2000/svg"><path d="m1.74997 14.5c0-.4142-.33579-.75-.750004-.75s-.749998.3358-.749997.75zm26.75003-4 .6022-.447c-.1446-.1948-.3745-.30763-.617-.30285-.2425.00477-.4678.12655-.6046.32685zm106.746-8.42363c.042-.41206-.258-.78029-.67-.82247l-6.715-.687355c-.412-.042179-.78.257669-.822.669725-.042.41206.258.7803.67.82248l5.968.61098-.61 5.96881c-.043.41206.257.78029.669.82247s.781-.25766.823-.66973zm-134.996031 12.42363c.000009 1.8696.958681 3.8912 2.539631 5.522 1.59266 1.643 3.86617 2.9448 6.60178 3.3451 5.52062.8079 12.64172-2.0679 19.72792-12.4441l-1.2387-.846c-6.9138 10.1238-13.5427 12.498-18.27202 11.8059-2.38939-.3497-4.36587-1.4854-5.74196-2.9049-1.38781-1.4317-2.11664-3.0976-2.11665-4.478zm27.647731-3.553c6.1195 8.2443 18.81 17.6389 37.0378 19.2127 18.2424 1.5751 41.9295-4.6897 70.0385-27.57812l-.948-1.16316c-27.891 22.71158-51.204 28.78008-68.9615 27.24688-17.7722-1.5345-30.0818-10.69-35.9623-18.6123z" fill="#0022d5"/></svg>

<svg width="136" height="32" viewBox="0 0 136 32" fill="none" xmlns="http://www.w3.org/2000/svg">
<path d="M1.74997 14.5C1.74997 14.0858 1.41418 13.75 0.999966 13.75C0.585752 13.75 0.249968 14.0858 0.249969 14.5L1.74997 14.5ZM28.5 10.5L29.1022 10.053C28.9576 9.8582 28.7277 9.74537 28.4852 9.75015C28.2427 9.75492 28.0174 9.8767 27.8806 10.077L28.5 10.5ZM135.246 2.07637C135.288 1.66431 134.988 1.29608 134.576 1.2539L127.861 0.566545C127.449 0.524366 127.081 0.824214 127.039 1.23627C126.997 1.64833 127.297 2.01657 127.709 2.05875L133.677 2.66973L133.067 8.63854C133.024 9.0506 133.324 9.41883 133.736 9.46101C134.148 9.50319 134.517 9.20335 134.559 8.79128L135.246 2.07637ZM0.249969 14.5C0.249978 16.3696 1.20865 18.3912 2.7896 20.022C4.38226 21.665 6.65577 22.9668 9.39138 23.3671C14.912 24.175 22.0331 21.2992 29.1193 10.923L27.8806 10.077C20.9668 20.2008 14.3379 22.575 9.60858 21.8829C7.21919 21.5332 5.24271 20.3975 3.86662 18.978C2.47881 17.5463 1.74998 15.8804 1.74997 14.5L0.249969 14.5ZM27.8977 10.947C34.0172 19.1913 46.7077 28.5859 64.9355 30.1597C83.1779 31.7348 106.865 25.47 134.974 2.58158L134.026 1.41842C106.135 24.13 82.822 30.1985 65.0645 28.6653C47.2923 27.1308 34.9827 17.9753 29.1022 10.053L27.8977 10.947Z" fill="#0022D5"/>
</svg>
